source/assets/ui/tabs/ctr_a.svg

<?xml version="1.0" encoding="UTF-8"?>
<svg id="b" width="70" height="24" version="1.1" viewBox="0 0 70 24" xmlns="http://www.w3.org/2000/svg" xmlns:cc="http://creativecommons.org/ns#" xmlns:dc="http://purl.org/dc/elements/1.1/" xmlns:rdf="http://www.w3.org/1999/02/22-rdf-syntax-ns#"><defs><clipPath id="a"><path d="m76.965 496.96h257.09v52.963h-257.09z"/></clipPath></defs><g transform="translate(-77.139 -30.827)"><g transform="matrix(.23599 0 0 -.23599 64.327 166.38)" clip-path="url(#a)" fill="#fff"><g transform="translate(211.56 512.58)"><path d="m0 0c0-0.292-0.241-0.531-0.534-0.531h-10.189c-0.296 0-0.533 0.239-0.533 0.531v7.37c0 0.293 0.237 0.53 0.533 0.53h10.189c0.293 0 0.534-0.237 0.534-0.53zm-0.442 10.111h-10.375c-1.502 0-2.722-1.229-2.722-2.726v-7.402c0-1.495 1.22-2.723 2.722-2.723h10.375c1.502 0 2.725 1.228 2.725 2.723v7.402c0 1.497-1.223 2.726-2.725 2.726" fill="#fff"/></g><g transform="translate(92.134 533.76)"><path d="m0 0v-9.524h-2.381v12.855h2.033l9.639-9.363v9.363h2.35v-12.855h-1.86z" fill="#fff"/></g><g transform="translate(115.99 533.76)"><path d="m0 0v-9.524h-2.38v12.855h2.031l9.639-9.363v9.363h2.352v-12.855h-1.859z" fill="#fff"/></g><g transform="translate(165.45 533.76)"><path d="m0 0v-9.524h-2.379v12.855h2.031l9.638-9.363v9.363h2.352v-12.855h-1.858z" fill="#fff"/></g><g transform="translate(109.44 537.09)"><path d="m0 0h0.44v-12.854h-2.379v12.854z" fill="#fff"/></g><g transform="translate(143.84 537.09)"><path d="m0 0h0.438v-2.211h-5.74v-10.643h-2.472v10.643h-5.736v2.211z" fill="#fff"/></g><g transform="translate(159.09 537.09)"><path d="m0 0h0.446v-2.211h-10.201v-2.885h7.891v-2.211h-7.891v-3.333h10.201v-2.214h-12.556v12.854z" fill="#fff"/></g><g transform="translate(190.32 526.45)"><path d="m0 0h-7.31v8.429h7.31c2.287 0 3.101-2.273 3.101-4.212 0-1.947-0.814-4.217-3.101-4.217m3.905 8.762c-0.929 1.226-2.307 1.878-3.973 1.878h-9.537v-12.855h9.537c1.666 0 3.044 0.651 3.973 1.878 0.871 1.143 1.334 2.713 1.334 4.554 0 1.831-0.463 3.408-1.334 4.545" fill="#fff"/></g><g transform="translate(211.56 526.98)"><path d="m0 0c0-0.29-0.241-0.529-0.534-0.529h-10.189c-0.296 0-0.533 0.239-0.533 0.529v7.37c0 0.291 0.237 0.528 0.533 0.528h10.189c0.293 0 0.534-0.237 0.534-0.528zm-0.442 10.112h-10.375c-1.502 0-2.722-1.23-2.722-2.727v-7.404c0-1.496 1.22-2.724 2.722-2.724h10.375c1.502 0 2.725 1.228 2.725 2.724v7.404c0 1.497-1.223 2.727-2.725 2.727" fill="#fff"/></g><g transform="translate(288.46 515.23)"><path d="m0 0c2.469-0.974 7.679-1.764 11.744-1.764 4.451 0 6.298 1.528 6.298 3.445 0 1.72-1.714 2.731-6.63 4.533-6.571 2.429-11.39 4.34-11.39 8.656 0 4.47 5.798 7.099 14.642 7.099 4.748 0 6.378-0.3 9.395-0.853l0.021-4.241c-2.961 0.563-5.586 1.531-9.664 1.531-4.369 0-6.23-1.387-6.23-2.817 0-2.075 2.866-3.067 7.898-4.86 7.002-2.507 10.898-4.441 10.898-8.667 0-4.348-4.878-7.487-15.882-7.487-4.52 0-7.635 0.298-11.1 0.855z" fill="#fff"/></g><g transform="translate(265.04 533.45)"><path d="m0 0h-5.236v-19.823h5.236c8.039 0 13.11 3.437 13.11 9.871 0 6.432-5.071 9.952-13.11 9.952m14.06-21.67c-2.593-1.173-7.491-1.917-11.777-1.917h-16.368v27.276h16.368c4.286 0 9.184-0.754 11.779-1.924 6.304-2.846 8.362-7.401 8.362-11.717 0-4.319-2.039-8.867-8.364-11.718" fill="#fff"/></g><g transform="translate(239.48 524.79)"><path d="m0 0s7.636 1.223 7.636 5.977c0 4.647-8.131 6.548-16.782 6.548-7.808 0-12.941-0.954-12.941-0.954v-4.222c3.544 0.857 6.933 1.587 11.553 1.587 4.958 0 8.742-1.479 8.742-3.569 0-2.52-3.742-3.959-11.795-3.959h-3.701v-3.799h3.438c8.483 0 13.307-1.276 13.307-4.39 0-2.78-4.31-4.469-9.684-4.469-4.686 0-8.973 0.998-12.45 1.963v-4.554c1.67-0.287 6.101-1.177 14.354-1.177 9.142 0 17.097 2.94 17.097 8.122 0 4.346-5.511 6.896-8.774 6.896" fill="#fff"/></g></g></g><metadata><rdf:RDF><cc:Work rdf:about=""><dc:creator><cc:Agent><dc:title>NinStar</dc:title></cc:Agent></dc:creator></cc:Work></rdf:RDF></metadata></svg>

<?xml version="1.0" encoding="UTF-8" standalone="no"?>
<!-- Created with Inkscape (http://www.inkscape.org/) -->

<svg
   width="70"
   height="24"
   viewBox="0 0 70 24"
   version="1.1"
   id="SVGRoot"
   xmlns="http://www.w3.org/2000/svg"
   xmlns:svg="http://www.w3.org/2000/svg"
   xmlns:rdf="http://www.w3.org/1999/02/22-rdf-syntax-ns#"
   xmlns:cc="http://creativecommons.org/ns#"
   xmlns:dc="http://purl.org/dc/elements/1.1/">
  <defs
     id="defs1725">
    <clipPath
       id="clipPath4439-1-0">
      <path
         d="m 76.965,496.958 h 257.093 v 52.963 H 76.965 Z"
         id="path4441-7-0" />
    </clipPath>
  </defs>
  <g
     id="layer1"
     transform="translate(-77.1393,-30.827056)">
    <g
       clip-path="url(#clipPath4439-1-0)"
       id="g4437"
       transform="matrix(0.23599463,0,0,-0.23599463,64.3271,166.38059)"
       style="display:inline;fill:#ffffff">
      <g
         transform="translate(211.56441,512.57739)"
         id="g4443"
         style="fill:#ffffff">
        <path
           d="m 0,0 c 0,-0.292 -0.241,-0.531 -0.534,-0.531 h -10.189 c -0.296,0 -0.533,0.239 -0.533,0.531 v 7.37 c 0,0.293 0.237,0.53 0.533,0.53 H -0.534 C -0.241,7.9 0,7.663 0,7.37 Z m -0.442,10.111 h -10.375 c -1.502,0 -2.722,-1.229 -2.722,-2.726 v -7.402 c 0,-1.495 1.22,-2.723 2.722,-2.723 h 10.375 c 1.502,0 2.725,1.228 2.725,2.723 v 7.402 c 0,1.497 -1.223,2.726 -2.725,2.726"
           id="path4445"
           style="fill:#ffffff;fill-opacity:1;fill-rule:nonzero;stroke:none" />
      </g>
      <g
         transform="translate(92.134293,533.7625)"
         id="g4447"
         style="fill:#ffffff">
        <path
           d="M 0,0 V -9.524 H -2.381 V 3.331 h 2.033 l 9.639,-9.363 v 9.363 h 1.904 0.446 V -9.524 h -1.86 z"
           id="path4449"
           style="fill:#ffffff;fill-opacity:1;fill-rule:nonzero;stroke:none" />
      </g>
      <g
         transform="translate(115.99471,533.7625)"
         id="g4451"
         style="fill:#ffffff">
        <path
           d="M 0,0 V -9.524 H -2.38 V 3.331 h 2.031 L 9.29,-6.032 v 9.363 h 1.908 0.444 V -9.524 H 9.783 Z"
           id="path4453"
           style="fill:#ffffff;fill-opacity:1;fill-rule:nonzero;stroke:none" />
      </g>
      <g
         transform="translate(165.44679,533.7625)"
         id="g4455"
         style="fill:#ffffff">
        <path
           d="M 0,0 V -9.524 H -2.379 V 3.331 h 2.031 L 9.29,-6.032 v 9.363 h 1.907 0.445 V -9.524 H 9.784 Z"
           id="path4457"
           style="fill:#ffffff;fill-opacity:1;fill-rule:nonzero;stroke:none" />
      </g>
      <g
         transform="translate(109.44099,537.09309)"
         id="g4459"
         style="fill:#ffffff">
        <path
           d="M 0,0 H 0.44 V -12.854 H -1.939 V 0 Z"
           id="path4461"
           style="fill:#ffffff;fill-opacity:1;fill-rule:nonzero;stroke:none" />
      </g>
      <g
         transform="translate(143.84331,537.09309)"
         id="g4463"
         style="fill:#ffffff">
        <path
           d="m 0,0 h 0.438 v -2.211 h -5.74 V -12.854 H -7.774 V -2.211 H -13.51 V 0 Z"
           id="path4465"
           style="fill:#ffffff;fill-opacity:1;fill-rule:nonzero;stroke:none" />
      </g>
      <g
         transform="translate(159.09039,537.09309)"
         id="g4467"
         style="fill:#ffffff">
        <path
           d="M 0,0 H 0.446 V -2.211 H -9.755 v -2.885 h 7.891 V -7.307 H -9.755 V -10.64 H 0.446 v -2.214 H -12.11 V 0 Z"
           id="path4469"
           style="fill:#ffffff;fill-opacity:1;fill-rule:nonzero;stroke:none" />
      </g>
      <g
         transform="translate(190.3214,526.4534)"
         id="g4471"
         style="fill:#ffffff">
        <path
           d="M 0,0 H -7.31 V 8.429 H -7.242 0 C 2.287,8.429 3.101,6.156 3.101,4.217 3.101,2.27 2.287,0 0,0 M 3.905,8.762 C 2.976,9.988 1.598,10.64 -0.068,10.64 H -9.605 V -2.215 h 9.537 c 1.666,0 3.044,0.651 3.973,1.878 0.871,1.143 1.334,2.713 1.334,4.554 0,1.831 -0.463,3.408 -1.334,4.545"
           id="path4473"
           style="fill:#ffffff;fill-opacity:1;fill-rule:nonzero;stroke:none" />
      </g>
      <g
         transform="translate(211.56441,526.98129)"
         id="g4475"
         style="fill:#ffffff">
        <path
           d="m 0,0 c 0,-0.29 -0.241,-0.529 -0.534,-0.529 h -10.189 c -0.296,0 -0.533,0.239 -0.533,0.529 v 7.37 c 0,0.291 0.237,0.528 0.533,0.528 H -0.534 C -0.241,7.898 0,7.661 0,7.37 Z m -0.442,10.112 h -10.375 c -1.502,0 -2.722,-1.23 -2.722,-2.727 v -7.404 c 0,-1.496 1.22,-2.724 2.722,-2.724 h 10.375 c 1.502,0 2.725,1.228 2.725,2.724 v 7.404 c 0,1.497 -1.223,2.727 -2.725,2.727"
           id="path4477"
           style="fill:#ffffff;fill-opacity:1;fill-rule:nonzero;stroke:none" />
      </g>
      <g
         transform="translate(288.4624,515.2308)"
         id="g4479"
         style="fill:#ffffff">
        <path
           d="m 0,0 c 2.469,-0.974 7.679,-1.764 11.744,-1.764 4.451,0 6.298,1.528 6.298,3.445 0,1.72 -1.714,2.731 -6.63,4.533 -6.571,2.429 -11.39,4.34 -11.39,8.656 0,4.47 5.798,7.099 14.642,7.099 4.748,0 6.378,-0.3 9.395,-0.853 l 0.021,-4.241 c -2.961,0.563 -5.586,1.531 -9.664,1.531 -4.369,0 -6.23,-1.387 -6.23,-2.817 0,-2.075 2.866,-3.067 7.898,-4.86 7.002,-2.507 10.898,-4.441 10.898,-8.667 0,-4.348 -4.878,-7.487 -15.882,-7.487 -4.52,0 -7.635,0.298 -11.1,0.855 z"
           id="path4481"
           style="fill:#ffffff;fill-opacity:1;fill-rule:nonzero;stroke:none" />
      </g>
      <g
         transform="translate(265.03841,533.452)"
         id="g4483"
         style="fill:#ffffff">
        <path
           d="M 0,0 H -5.236 V -19.823 H 0 c 8.039,0 13.11,3.437 13.11,9.871 C 13.11,-3.52 8.039,0 0,0 M 14.06,-21.67 C 11.467,-22.843 6.569,-23.587 2.283,-23.587 H -14.085 V 3.689 H 2.283 c 4.286,0 9.184,-0.754 11.779,-1.924 6.304,-2.846 8.362,-7.401 8.362,-11.717 0,-4.319 -2.039,-8.867 -8.364,-11.718"
           id="path4485"
           style="fill:#ffffff;fill-opacity:1;fill-rule:nonzero;stroke:none" />
      </g>
      <g
         transform="translate(239.4794,524.7903)"
         id="g4487"
         style="fill:#ffffff">
        <path
           d="m 0,0 c 0,0 7.636,1.223 7.636,5.977 0,4.647 -8.131,6.548 -16.782,6.548 -7.808,0 -12.941,-0.954 -12.941,-0.954 V 7.349 c 3.544,0.857 6.933,1.587 11.553,1.587 4.958,0 8.742,-1.479 8.742,-3.569 0,-2.52 -3.742,-3.959 -11.795,-3.959 h -3.701 v -3.799 h 3.438 c 8.483,0 13.307,-1.276 13.307,-4.39 0,-2.78 -4.31,-4.469 -9.684,-4.469 -4.686,0 -8.973,0.998 -12.45,1.963 v -4.554 c 1.67,-0.287 6.101,-1.177 14.354,-1.177 9.142,0 17.097,2.94 17.097,8.122 C 8.774,-2.55 3.263,0 0,0"
           id="path4489"
           style="fill:#ffffff;fill-opacity:1;fill-rule:nonzero;stroke:none" />
      </g>
      <g
         transform="translate(317.66541,513.5804)"
         id="g4491"
         style="fill:#ffffff" />
      <g
         transform="translate(321.99741,512.2518)"
         id="g4495"
         style="fill:#ffffff" />
    </g>
  </g>
  <metadata
     id="metadata2103">
    <rdf:RDF>
      <cc:Work
         rdf:about="">
        <dc:creator>
          <cc:Agent>
            <dc:title>NinStar</dc:title>
          </cc:Agent>
        </dc:creator>
      </cc:Work>
    </rdf:RDF>
  </metadata>
</svg>
